svgs/thin/square-ellipsis.svg

<svg xmlns="http://www.w3.org/2000/svg" viewBox="0 0 448 512"><!--! Font Awesome Pro 6.4.2 by @fontawesome - https://fontawesome.com License - https://fontawesome.com/license (Commercial License) Copyright 2023 Fonticons, Inc. --><path d="M16 416c0 26.5 21.5 48 48 48l320 0c26.5 0 48-21.5 48-48l0-320c0-26.5-21.5-48-48-48L64 48C37.5 48 16 69.5 16 96l0 320zm48 64c-35.3 0-64-28.7-64-64L0 96C0 60.7 28.7 32 64 32l320 0c35.3 0 64 28.7 64 64l0 320c0 35.3-28.7 64-64 64L64 480zM208 256a16 16 0 1 1 32 0 16 16 0 1 1 -32 0zm-80 16a16 16 0 1 1 0-32 16 16 0 1 1 0 32zm176-16a16 16 0 1 1 32 0 16 16 0 1 1 -32 0z"/></svg>

<svg xmlns="http://www.w3.org/2000/svg" viewBox="0 0 448 512"><!--! Font Awesome Pro 6.1.1 by @fontawesome - https://fontawesome.com License - https://fontawesome.com/license (Commercial License) Copyright 2022 Fonticons, Inc. --><path d="M224 272C215.2 272 208 264.8 208 256C208 247.2 215.2 240 224 240C232.8 240 240 247.2 240 256C240 264.8 232.8 272 224 272zM128 240C136.8 240 144 247.2 144 256C144 264.8 136.8 272 128 272C119.2 272 112 264.8 112 256C112 247.2 119.2 240 128 240zM320 272C311.2 272 304 264.8 304 256C304 247.2 311.2 240 320 240C328.8 240 336 247.2 336 256C336 264.8 328.8 272 320 272zM64 480C28.65 480 0 451.3 0 416V96C0 60.65 28.65 32 64 32H384C419.3 32 448 60.65 448 96V416C448 451.3 419.3 480 384 480H64zM64 464H384C410.5 464 432 442.5 432 416V96C432 69.49 410.5 48 384 48H64C37.49 48 16 69.49 16 96V416C16 442.5 37.49 464 64 464z"/></svg>
